packages/ffe-icons/icons/open/300/md/frame_person_off.svg

<svg xmlns="http://www.w3.org/2000/svg" height="24" viewBox="0 -960 960 960" width="24"><path d="M810.001-65.078 774.462-100H669.999q-12.749 0-21.374-8.629Q640-117.259 640-130.014q0-12.756 8.625-21.371Q657.25-160 669.999-160h44.465l-97.694-97.694H286.154q-15.365 0-25.759-10.394t-10.394-25.759v-29.846q0-18.541 9.361-34.876 9.36-16.334 25.408-26.046 35.231-20.693 74.116-33.193 38.885-12.5 79.27-16.192h2.308L160-715.079v45.08q0 12.749-8.629 21.374Q142.743-640 129.987-640q-12.755 0-21.37-8.625-8.616-8.625-8.616-21.374v-104.463L71.694-802.77q-8.923-8.923-8.808-21.192.115-12.269 9.423-21.576 9.308-9.308 21.384-9.308 12.077 0 21.384 9.308L852.77-107.23q8.923 8.922 9.115 20.884.192 11.961-9.115 21.269-9.308 9.307-21.384 9.307-12.077 0-21.385-9.307ZM557.156-317.307l-59.617-59.617v-.77q-55.77 0-100.193 11.539-44.424 11.539-83.655 33.846v15.002h243.465Zm32.843-275q0 22.538-8.577 42.346-8.576 19.807-23.268 34.884l-42.769-42.768q7-6.154 10.808-15.116 3.808-8.961 3.808-19.346 0-20.847-14.577-35.424-14.578-14.577-35.424-14.577-10.385 0-19.346 3.808-8.962 3.807-15.116 10.807l-42.768-42.768q15.077-14.692 34.884-23.269 19.808-8.576 42.346-8.576 45.384 0 77.692 32.307 32.307 32.308 32.307 77.692Zm270 302.306v76.769L800-273.231v-16.77q0-12.749 8.629-21.374Q817.257-320 830.013-320q12.755 0 21.37 8.625 8.616 8.625 8.616 21.374Zm-687.69 190q-30.308 0-51.308-21t-21-51.308v-117.692q0-12.749 8.629-21.374Q117.259-320 130.014-320q12.756 0 21.371 8.625Q160-302.75 160-290.001v117.692q0 4.616 3.846 8.463 3.847 3.846 8.463 3.846h117.692q12.749 0 21.374 8.629Q320-142.743 320-129.987q0 12.755-8.625 21.37-8.625 8.616-21.374 8.616H172.309ZM800-669.999v-117.692q0-4.616-3.846-8.463-3.847-3.846-8.463-3.846H669.999q-12.749 0-21.374-8.629Q640-817.257 640-830.013q0-12.755 8.625-21.37 8.625-8.616 21.374-8.616h117.692q30.308 0 51.308 21t21 51.308v117.692q0 12.749-8.629 21.374Q842.741-640 829.986-640q-12.756 0-21.371-8.625Q800-657.25 800-669.999Zm-319.538 77.23Zm17.077 275.462ZM213.232-859.999h76.769q12.749 0 21.374 8.629Q320-842.741 320-829.986q0 12.756-8.625 21.371Q302.75-800 290.001-800h-16.77l-59.999-59.999Z"/></svg>

<svg xmlns="http://www.w3.org/2000/svg" height="24" viewBox="0 -960 960 960" width="24"><path d="M810-65.08 774.46-100H670q-12.75 0-21.38-8.63-8.62-8.63-8.62-21.38 0-12.76 8.62-21.37Q657.25-160 670-160h44.46l-97.69-97.69H286.15q-15.36 0-25.76-10.4Q250-278.48 250-293.85v-29.84q0-18.54 9.36-34.88 9.36-16.33 25.41-26.05 35.23-20.69 74.12-33.19 38.88-12.5 79.27-16.19h2.3L160-715.08V-670q0 12.75-8.63 21.38-8.63 8.62-21.38 8.62-12.76 0-21.37-8.62Q100-657.25 100-670v-104.46l-28.31-28.31q-8.92-8.92-8.8-21.19.11-12.27 9.42-21.58 9.31-9.31 21.38-9.31 12.08 0 21.39 9.31l737.69 738.31q8.92 8.92 9.11 20.88.2 11.96-9.11 21.27-9.31 9.31-21.38 9.31-12.08 0-21.39-9.31ZM557.16-317.31l-59.62-59.61v-.77q-55.77 0-100.19 11.53-44.43 11.54-83.66 33.85v15h243.47Zm32.84-275q0 22.54-8.58 42.35-8.57 19.81-23.27 34.88l-42.76-42.77q7-6.15 10.8-15.11 3.81-8.96 3.81-19.35 0-20.84-14.58-35.42-14.57-14.58-35.42-14.58-10.38 0-19.35 3.81-8.96 3.81-15.11 10.81l-42.77-42.77q15.08-14.69 34.88-23.27 19.81-8.58 42.35-8.58 45.38 0 77.69 32.31Q590-637.69 590-592.31ZM860-290v76.77l-60-60V-290q0-12.75 8.63-21.38 8.63-8.62 21.38-8.62 12.76 0 21.37 8.62Q860-302.75 860-290ZM172.31-100Q142-100 121-121q-21-21-21-51.31V-290q0-12.75 8.63-21.38 8.63-8.62 21.38-8.62 12.76 0 21.37 8.62Q160-302.75 160-290v117.69q0 4.62 3.85 8.46 3.84 3.85 8.46 3.85H290q12.75 0 21.38 8.63 8.62 8.63 8.62 21.38 0 12.76-8.62 21.37Q302.75-100 290-100H172.31ZM800-670v-117.69q0-4.62-3.85-8.46-3.84-3.85-8.46-3.85H670q-12.75 0-21.38-8.63-8.62-8.63-8.62-21.38 0-12.76 8.62-21.37Q657.25-860 670-860h117.69Q818-860 839-839q21 21 21 51.31V-670q0 12.75-8.63 21.38-8.63 8.62-21.38 8.62-12.76 0-21.37-8.62Q800-657.25 800-670Zm-319.54 77.23Zm17.08 275.46ZM213.23-860H290q12.75 0 21.38 8.63 8.62 8.63 8.62 21.38 0 12.76-8.62 21.37Q302.75-800 290-800h-16.77l-60-60Z"/></svg>
